deployments/warp_routes/enzoBTC/logo.svg

<svg width="128" height="128" viewBox="0 0 128 128" fill="none" xmlns="http://www.w3.org/2000/svg">
<g clip-path="url(#clip0_1236_77044)">
<mask id="mask0_1236_77044" style="mask-type:luminance" maskUnits="userSpaceOnUse" x="0" y="0" width="128" height="128">
<path d="M128 0H0V128H128V0Z" fill="white"/>
</mask>
<g mask="url(#mask0_1236_77044)">
<path d="M64 0C28.7063 0 0 28.7064 0 64C0 99.294 28.7063 128 64 128C99.2936 128 128 99.294 128 64C128 28.7064 99.2936 0 64 0ZM64 117.438C34.5271 117.438 10.5626 93.4732 10.5626 64C10.5626 34.5271 34.5271 10.5626 64 10.5626C93.4728 10.5626 117.438 34.5271 117.438 64C117.438 93.4732 93.4728 117.438 64 117.438Z" fill="#133348"/>
<path d="M64 120C94.928 120 120 94.928 120 64C120 33.072 94.928 8 64 8C33.072 8 8 33.072 8 64C8 94.928 33.072 120 64 120Z" fill="white"/>
<path d="M64.0098 114.428C91.8602 114.428 114.437 91.8509 114.437 64.0005C114.437 36.15 91.8602 13.5728 64.0098 13.5728C36.1593 13.5728 13.582 36.15 13.582 64.0005C13.582 91.8509 36.1593 114.428 64.0098 114.428Z" fill="#133348"/>
<path d="M89.4723 57.7321C90.5391 51.0077 85.1135 47.3921 77.7011 44.9797L80.1063 35.8683L74.2359 34.4888L71.8919 43.3593C70.3495 42.9937 68.7667 42.6537 67.1871 42.3137L69.5479 33.3852L63.6775 32.0024L61.2723 41.1105C59.9951 40.8345 58.7383 40.5649 57.5219 40.2765L57.5287 40.2473L49.4299 38.3386L47.8675 44.2609C47.8675 44.2609 52.2259 45.2041 52.1343 45.2617C54.5123 45.8233 54.9403 47.3085 54.8687 48.4893L52.1307 58.8677C52.2939 58.9061 52.5043 58.9641 52.7423 59.0505L52.1207 58.9061L48.2819 73.4457C47.9895 74.1257 47.2523 75.1493 45.5879 74.7609C45.6491 74.8413 41.3211 73.7569 41.3211 73.7569L38.4062 80.1029L46.0499 81.9025C47.4699 82.2393 48.8627 82.5921 50.2319 82.9229L47.8027 92.1365L53.6695 93.5161L56.0747 84.4049C57.6783 84.8125 59.2343 85.1909 60.7563 85.5501L58.3579 94.6229L64.2279 96.0025L66.6571 86.8077C76.6719 88.5981 84.1999 87.8761 87.3695 79.3233C89.9239 72.4385 87.2435 68.4633 81.9747 65.8745C85.8135 65.0405 88.7011 62.6565 89.4723 57.7321ZM76.0535 75.4989C74.2427 82.3869 61.9623 78.6621 57.9807 77.7285L61.2079 65.5217C65.1895 66.4617 77.9523 68.3189 76.0535 75.4989ZM77.8711 57.6325C76.2167 63.8981 65.9979 60.7125 62.6859 59.9329L65.6071 48.8645C68.9195 49.6441 79.5967 51.0977 77.8711 57.6325Z" fill="white"/>
</g>
</g>
<defs>
<clipPath id="clip0_1236_77044">
<rect width="128" height="128" fill="white"/>
</clipPath>
</defs>
</svg>

<svg xmlns="http://www.w3.org/2000/svg" width="128" height="128" fill="none" viewBox="0 0 128 128"><g clip-path="url(#a)"><mask id="b" width="128" height="128" x="0" y="0" maskUnits="userSpaceOnUse" style="mask-type:luminance"><path fill="#fff" d="M128 0H0v128h128z"/></mask><g mask="url(#b)"><path fill="#133348" d="M64 0C28.706 0 0 28.706 0 64s28.706 64 64 64 64-28.706 64-64S99.294 0 64 0m0 117.438c-29.473 0-53.437-23.965-53.437-53.438S34.527 10.563 64 10.563 117.438 34.527 117.438 64 93.473 117.438 64 117.438"/><path fill="#fff" d="M64 120c30.928 0 56-25.072 56-56S94.928 8 64 8 8 33.072 8 64s25.072 56 56 56"/><path fill="#133348" d="M64.01 114.428c27.85 0 50.427-22.577 50.427-50.427 0-27.851-22.577-50.428-50.427-50.428S13.582 36.15 13.582 64s22.577 50.427 50.428 50.427"/><path fill="#fff" d="M89.472 57.732c1.067-6.724-4.358-10.34-11.77-12.752l2.404-9.112-5.87-1.38-2.344 8.871c-1.542-.365-3.125-.705-4.705-1.045l2.36-8.929-5.87-1.383-2.405 9.109c-1.277-.276-2.534-.546-3.75-.834l.007-.03-8.1-1.908-1.562 5.922s4.359.943 4.267 1c2.378.562 2.806 2.047 2.735 3.228L52.13 58.868c.163.038.373.096.611.182l-.621-.144-3.84 14.54c-.291.68-1.029 1.703-2.693 1.315.061.08-4.267-1.004-4.267-1.004l-2.915 6.346 7.644 1.8c1.42.336 2.813.69 4.182 1.02l-2.43 9.213 5.868 1.38 2.405-9.111c1.603.407 3.16.786 4.681 1.145l-2.398 9.073 5.87 1.38 2.43-9.195c10.014 1.79 17.542 1.068 20.712-7.485 2.554-6.884-.127-10.86-5.395-13.448 3.839-.835 6.726-3.218 7.497-8.143M76.054 75.5c-1.811 6.888-14.092 3.163-18.073 2.23l3.227-12.207c3.981.94 16.744 2.797 14.846 9.977m1.817-17.866c-1.654 6.265-11.873 3.08-15.185 2.3l2.921-11.068c3.313.78 13.99 2.233 12.264 8.767"/></g></g><defs><clipPath id="a"><path fill="#fff" d="M0 0h128v128H0z"/></clipPath></defs></svg>
